X: 355
T: Ne si go Prodavaj Koljo Ciflikot
O: Macedonia
F: http://www.youtube.com/watch?v=WkLtu7uN1mw
F: http://www.youtube.com/watch?v=xSNmNZWtiUU
F: http://www.youtube.com/watch?v=GTRQVGS7Bbg
M: 7/8
Q: 1/4=120
K: Dm
%%MIDI program 110 Fiddle
%%MIDI chordprog 24 Acoustic Guitar
%%MIDI gchord cccc2c2
D2|"Gm"GGG G2G2|"Dm"FGF GB AG|GF GA F3 |D_EDC D3-|Dz2 DC=B,C|D3 z2D2|
"Gm"GGG G2G2|GBA G4|"Am"cBA GFGA |"Dm"zFG_E D3|:
%%MIDI gchord ccccc3
"Dm"D2 dd dd2|"Am"cB AG ABc|dcB AGFG|AFG"Dm"_ED-D2::
%%MIDI gchord cccc2c2
"Gm"GG GG GFA|"Edim"GF ED CDE |"Am"FcBA FGA|zFG_E "Dm"D3:|



